X:1
T:Santos, 10.10.10.10 D
T:Santos, 10.10.10.10 D
T:Robert Lowry, 1869
T:Public Domain Courtesy of the Cyber Hymnal™
C:Robert Lowry, 1869
Z:Public Domain
Z:Courtesy of the Cyber Hymnal™
%%score ( 1 2 ) ( 3 4 )
L:1/8
Q:1/4=115
M:3/4
K:G
V:1 treble 
V:2 treble 
V:3 bass 
V:4 bass 
V:1
 [GB]3 [FA] [GB]2 | [Bd]3 [Ac] [GB]2 | [FA]2 G2 [FA]2 | [GB]4 z2 | [GB]3 [FA] [GB]2 | %5
 [Gc]3 [GB] [EA]2 | [DA]2 [DG]2 [DF]2 | [DG]4 z2 | [GB]3 [FA] [GB]2 | [Bd]3 [Ac] [GB]2 | %10
 [FA]2 G2 [FA]2 | [GB]4 z2 | [GB]2 [Gc]2 [Gd]2 | [Ge]3 [Gd] [Ac]2 | [GB]2 [Ac]2 [FA]2 | G4 z2 |: %16
 [Gd]3 [Gc] [GB]2 | [GB]3 [DA] [DG]2 | [DG]2 [DF]2 [DG]2 | [FA]4 z2 :| [GB]3 [FA] [GB]2 | %21
 [Bd]3 [Ac] [GB]2 | [FA]2 G2 [FA]2 | [GB]4 z2 | [GB]2 [Gc]2 [Gd]2 | [Ge]3 [Gd] [Ac]2 | %26
 [GB]2 [Ac]2 [FA]2 | G6 |] %28
V:2
 x6 | x6 | x2 G2 x2 | x6 | x6 | x6 | x6 | x6 | x6 | x6 | x2 G2 x2 | x6 | x6 | x6 | x6 | G4 x2 |: %16
 x6 | x6 | x6 | x6 :| x6 | x6 | x2 G2 x2 | x6 | x6 | x6 | x6 | G6 |] %28
V:3
 [G,D]3 [G,D] [G,D]2 | [G,D]3 [G,D] [G,D]2 | [D,C]2 [D,B,]2 [D,D]2 | [G,D]4 z2 | %4
 [G,D]3 [G,D] [G,D]2 | [C,E]3 [C,D] [C,C]2 | [D,C]2 [D,B,]2 [D,A,]2 | [G,,B,]4 z2 | %8
 [G,D]3 [G,D] [G,D]2 | [G,D]3 [G,D] [G,D]2 | [D,C]2 [D,B,]2 [D,D]2 | [G,D]4 z2 | %12
 [=F,D]2 [E,C]2 [D,B,]2 | [C,C]3 [B,,D] [A,,E]2 | [D,D]2 [D,D]2 [D,C]2 | [G,,B,]4 z2 |: %16
 [G,B,]3 [G,A,] G,2 | [G,D]3 [G,C] [G,B,]2 | [B,D]2 [A,C]2 [G,B,]2 | [D,D]4 z2 :| %20
 [G,D]3 [G,D] [G,D]2 | [G,D]3 [G,D] [G,D]2 | [D,C]2 [D,B,]2 [D,D]2 | [G,D]4 z2 | %24
 [=F,D]2 [E,C]2 [D,B,]2 | [C,C]3 [B,,D] [A,,E]2 | [D,D]2 [D,D]2 [D,C]2 | [G,,B,]6 |] %28
V:4
 x6 | x6 | x6 | x6 | x6 | x6 | x6 | x6 | x6 | x6 | x6 | x6 | x6 | x6 | x6 | x6 |: x4 G,2 | x6 | %18
 x6 | x6 :| x6 | x6 | x6 | x6 | x6 | x6 | x6 | x6 |] %28

